X:158
T:Reel
O:No 158 William Clarke of Feltwell
M:C
L:1/8
N:In M.S. repeat marks at beginning of B but not at end.
K:G
:B |G2Ge dBBe|dBec dBBg|G2Ge dBBd|(e/f/g) dB A2A:||
(g/a/)|bggb affa|geeg dBB (g/a/)|bggb affd|(e/f/g) dB A2 A(g/a/)|
bggb affa|geeg dBBd|g<b f<a e<g d<B|(e/f/g) dB A2A||

